X:4031
T:Martin O'Connor's
O:england
M:2/4
L:1/8
C:Trad
R:polka
K:AMix
"A"F2E2 E2DE| "D"F2D2 D3E| F2E2 D2A2| "G"d2B2 B2A2| \
"A"F2E2 E2DE| "D"F2D2 D3E| "D"F2D2 d4|1 "G"B4 B2A2 :|2 "G"B8 |]
|: "D"F2d2 d3e| "G"f2e2 "A"e2f2| "D"d3c d2e2| "G"d2B2 "A"B2A2|\
"D"F2d2 d3e| "G"f2e2 "A"e2f2| "D"d2ed "A"c2A2|1 "G"B4 B2A2 :|2 "G"B8 |]


